static/images/7b-logo.svg

<svg height="100" viewBox="0 0 100 100" width="100" xmlns="http://www.w3.org/2000/svg"><g fill="#2395ff"><path d="m25.5346037 73.5494151h-13.2685128l19.5285167-38.6748823h-22.7946076v-9.8744429h34.9743924v9.1887218z"/><path d="m91 56.3377699c0 2.3770716-.3629661 4.6628602-1.0887434 6.8572112s-1.7917773 4.1371321-3.198 5.8286528c-1.3608905 1.6457246-3.0392603 2.9714944-5.0352642 3.9771548-1.995849 1.005815-4.264 1.5086452-6.804298 1.5086452-2.268151 0-4.4227396-.4571887-6.4640755-1.3714112-1.9960038-.960019-3.5383774-2.3086868-4.6269661-4.0458492h-.1361508v4.4572416h-10.2746v-42.0387234l11.1592715-6.5106917v18.0345849h.1359963c.9525925-1.1427397 2.2907396-2.1941962 4.0145963-3.1542615 1.7237018-.9600189 3.8331132-1.4400283 6.3280791-1.4400283 2.4494793 0 4.6495548.4800094 6.6002265 1.4400283 1.995849.9600653 3.6742189 2.262937 5.0351094 3.9086615 1.4062226 1.6457245 2.4722226 3.5657623 3.1981548 5.7601131.7711093 2.1485548 1.1566641 4.4114454 1.1566641 6.7886719zm-10.7508189 0c0-1.097253-.1814831-2.171453-.544449-3.2229095-.3174793-1.0514567-.8164415-1.9658339-1.4968869-2.7429773-.6804452-.8227851-1.5196301-1.4857472-2.5175546-1.9885775-.9980793-.5028301-2.1547434-.7542452-3.4703019-.7542452-1.2700718 0-2.4041472.2514151-3.4022264.7542452-.9979246.5028303-1.8598529 1.1657924-2.5856302 1.9885775-.6804453.8229396-1.2247397 1.7600603-1.6330377 2.8115169-.3628113 1.0514566-.5442944 2.1256566-.5442944 3.2229094 0 1.0970982.1814831 2.1714529.5442944 3.2229095.408298 1.0514566.9525924 1.9885774 1.6330377 2.811517.7257773.8227848 1.5877056 1.4857472 2.5856302 1.9885773.9980792.5028302 2.1321546.7542453 3.4022264.7542453 1.3155585 0 2.4722226-.2514151 3.4703019-.7542453.9979245-.5028301 1.8371094-1.1657925 2.5175546-1.9885773.6804454-.8229396 1.1794076-1.7600604 1.4968869-2.811517.3629659-1.0972528.544449-2.194351.544449-3.291449z"/></g></svg>

<?xml version="1.0" encoding="UTF-8"?>
<svg width="100px" height="100px" viewBox="0 0 100 100" version="1.1" xmlns="http://www.w3.org/2000/svg" xmlns:xlink="http://www.w3.org/1999/xlink">
    <!-- Generator: Sketch 63.1 (92452) - https://sketch.com -->
    <title>7b-logo</title>
    <desc>Created with Sketch.</desc>
    <g id="7b-logo" stroke="none" stroke-width="1" fill="none" fill-rule="evenodd">
        <polygon id="Path" fill="#2395FF" fill-rule="nonzero" points="25.5346037 73.5494151 12.2660909 73.5494151 31.7946076 34.8745328 9 34.8745328 9 25.0000899 43.9743924 25.0000899 43.9743924 34.1888117"></polygon>
        <path d="M91,56.3377699 C91,58.7148415 90.6370339,61.0006301 89.9112566,63.1949811 C89.1854793,65.3893321 88.1194793,67.3321132 86.7132566,69.0236339 C85.3523661,70.6693585 83.6739963,71.9951283 81.6779924,73.0007887 C79.6821434,74.0066037 77.4139924,74.5094339 74.8736944,74.5094339 C72.6055434,74.5094339 70.4509548,74.0522452 68.4096189,73.1380227 C66.4136151,72.1780037 64.8712415,70.8293359 63.7826528,69.0921735 L63.646502,69.0921735 L63.646502,73.5494151 L53.371902,73.5494151 L53.371902,31.5106917 L64.5311735,25 L64.5311735,43.0345849 L64.6671698,43.0345849 C65.6197623,41.8918452 66.9579094,40.8403887 68.6817661,39.8803234 C70.4054679,38.9203045 72.5148793,38.4402951 75.0098452,38.4402951 C77.4593245,38.4402951 79.6594,38.9203045 81.6100717,39.8803234 C83.6059207,40.8403887 85.2842906,42.1432604 86.6451811,43.7889849 C88.0514037,45.4347094 89.1174037,47.3547472 89.8433359,49.549098 C90.6144452,51.6976528 91,53.9605434 91,56.3377699 Z M80.2491811,56.3377699 C80.2491811,55.2405169 80.067698,54.1663169 79.7047321,53.1148604 C79.3872528,52.0634037 78.8882906,51.1490265 78.2078452,50.3718831 C77.5274,49.549098 76.6882151,48.8861359 75.6902906,48.3833056 C74.6922113,47.8804755 73.5355472,47.6290604 72.2199887,47.6290604 C70.9499169,47.6290604 69.8158415,47.8804755 68.8177623,48.3833056 C67.8198377,48.8861359 66.9579094,49.549098 66.2321321,50.3718831 C65.5516868,51.1948227 65.0073924,52.1319434 64.5990944,53.1834 C64.2362831,54.2348566 64.0548,55.3090566 64.0548,56.4063094 C64.0548,57.5034076 64.2362831,58.5777623 64.5990944,59.6292189 C65.0073924,60.6806755 65.5516868,61.6177963 66.2321321,62.4407359 C66.9579094,63.2635207 67.8198377,63.9264831 68.8177623,64.4293132 C69.8158415,64.9321434 70.9499169,65.1835585 72.2199887,65.1835585 C73.5355472,65.1835585 74.6922113,64.9321434 75.6902906,64.4293132 C76.6882151,63.9264831 77.5274,63.2635207 78.2078452,62.4407359 C78.8882906,61.6177963 79.3872528,60.6806755 79.7047321,59.6292189 C80.067698,58.5319661 80.2491811,57.4348679 80.2491811,56.3377699 Z" id="Shape" fill="#2395FF" fill-rule="nonzero"></path>
    </g>
</svg>
